X:125
T:Gimme De Banjo
M:2/4
L:1/8
Q:1/4=3D150
K:A
A A2 E|G2 E2| A A2 E |(G2 E2)|C2 C2 |CC2B,|C2 A,2|
A,C E2|=3DG3G |=3DGG (GG)|F2  D2 |C2 C2 |CC2B,|C2 A,2||
